!!!OTL: Der schwatzhafte Junggeselle Es waren drei Gesellen,
!!!ARE: Europa, Mitteleuropa, Deutschland (BRD), Hessen, Vogelsberg, Storndorf
!!!YOR: 6, S. 274
!!    1909 aufgezeichnet (1907 - 09)
!!!SCT: Q0139E
!!!YEM: Copyright 1995, estate of Helmut Schaffrath.
**kern
*ICvox
*Ivox
*M2/4
*k[b-]
*F:
{8c
=1
4f
8e
8d
=2
4c
4a
=3
8g
8e
[4f
=4
4.f]}
{8c
=5
4f
8e
8d
=6
4c
4a
=7
8g
8e
[4f
=8
4f]}
{4f
=9
8.f
16g
8a
8a
=10
4a
8g
16a
16a
=11
8b-
8b-
8cc
8a
=12
4.g}
{8g
=13
8.g
16g
8.g
16g
=14
8g
8cc
8cc
8b-
=15
8a
8a
8g
8g
=16
4f}
{4c
=17
8d
8d
8e
8e
=18
4.f}
==
!!!AGN: Ballade, Indiskretion, verweigerter Beischlaf
!! Letzten Notenwert der 2. Zeile rhythmisch korrigiert.
!!!ONB: ESAC (Essen Associative Code) Database: BALLADE
!!!AMT: simple duple
!!!AIN: vox
!!!EED: Helmut Schaffrath
!!!EEV: 1.0
*-
